dist/img/i-whatsapp.svg

<svg  fill="none" xmlns="http://www.w3.org/2000/svg">
<circle cx="8" cy="8" r="8" fill="#5FC766"/>
<path d="M13.217 10.2554L11.3233 9.67075C11.0743 9.59391 10.8062 9.66984 10.6248 9.86858L10.1617 10.3759C9.96643 10.5898 9.67013 10.6585 9.41169 10.5461C8.51586 10.1563 6.63144 8.35485 6.15019 7.45378C6.01136 7.19386 6.03432 6.8689 6.20479 6.63174L6.60909 6.06936C6.76749 5.84902 6.80092 5.55311 6.69617 5.2984L5.89944 3.36098C5.7086 2.89694 5.15707 2.76186 4.79675 3.0895C4.26822 3.57012 3.64111 4.30047 3.56488 5.10959C3.43047 6.53614 3.9995 8.33443 6.15128 10.4937C8.63717 12.9883 10.6279 13.3179 11.924 12.9803C12.6591 12.7888 13.2466 12.0213 13.6174 11.3929C13.8702 10.9644 13.6706 10.3954 13.217 10.2554Z" fill="white"/>
</svg>

<svg fill="none" xmlns="http://www.w3.org/2000/svg"><circle cx="8" cy="8" r="8" fill="#5FC766"/><path d="M13.217 10.255l-1.894-.584a.673.673 0 0 0-.698.198l-.463.507a.656.656 0 0 1-.75.17c-.896-.39-2.78-2.191-3.262-3.092a.788.788 0 0 1 .055-.822l.404-.563a.806.806 0 0 0 .087-.77L5.9 3.36c-.19-.464-.742-.6-1.102-.272C4.268 3.57 3.64 4.3 3.565 5.11c-.135 1.427.434 3.225 2.586 5.385 2.486 2.494 4.477 2.824 5.773 2.486.735-.191 1.323-.959 1.693-1.587.253-.429.054-.998-.4-1.138z" fill="#fff"/></svg>
